_icons/calendar.svg

<svg width="1792" height="1792" viewBox="0 0 1792 1792" xmlns="http://www.w3.org/2000/svg"><path d="M192 1664h288v-288h-288v288zm352 0h320v-288h-320v288zm-352-352h288v-320h-288v320zm352 0h320v-320h-320v320zm-352-384h288v-288h-288v288zm736 736h320v-288h-320v288zm-384-736h320v-288h-320v288zm768 736h288v-288h-288v288zm-384-352h320v-320h-320v320zm-352-864v-288q0-13-9.5-22.5t-22.5-9.5h-64q-13 0-22.5 9.5t-9.5 22.5v288q0 13 9.5 22.5t22.5 9.5h64q13 0 22.5-9.5t9.5-22.5zm736 864h288v-320h-288v320zm-384-384h320v-288h-320v288zm384 0h288v-288h-288v288zm32-480v-288q0-13-9.5-22.5t-22.5-9.5h-64q-13 0-22.5 9.5t-9.5 22.5v288q0 13 9.5 22.5t22.5 9.5h64q13 0 22.5-9.5t9.5-22.5zm384-64v1280q0 52-38 90t-90 38h-1408q-52 0-90-38t-38-90v-1280q0-52 38-90t90-38h128v-96q0-66 47-113t113-47h64q66 0 113 47t47 113v96h384v-96q0-66 47-113t113-47h64q66 0 113 47t47 113v96h128q52 0 90 38t38 90z"/></svg>

<svg width="1792" height="1792" viewBox="0 0 1792 1792" xmlns="http://www.w3.org/2000/svg"><path d="M192 1664h288v-288H192v288zm352 0h320v-288H544v288zm-352-352h288V992H192v320zm352 0h320V992H544v320zM192 928h288V640H192v288zm736 736h320v-288H928v288zM544 928h320V640H544v288zm768 736h288v-288h-288v288zm-384-352h320V992H928v320zM576 448V160q0-13-9.5-22.5T544 128h-64q-13 0-22.5 9.5T448 160v288q0 13 9.5 22.5T480 480h64q13 0 22.5-9.5T576 448zm736 864h288V992h-288v320zM928 928h320V640H928v288zm384 0h288V640h-288v288zm32-480V160q0-13-9.5-22.5T1312 128h-64q-13 0-22.5 9.5T1216 160v288q0 13 9.5 22.5t22.5 9.5h64q13 0 22.5-9.5t9.5-22.5zm384-64v1280q0 52-38 90t-90 38H192q-52 0-90-38t-38-90V384q0-52 38-90t90-38h128v-96q0-66 47-113T480 0h64q66 0 113 47t47 113v96h384v-96q0-66 47-113t113-47h64q66 0 113 47t47 113v96h128q52 0 90 38t38 90z"/></svg>
